dist/svg/cloud-off.svg

<!-- Generated by Trend Micro Style Portal -->
<svg version="1.1" xmlns="http://www.w3.org/2000/svg" width="16" height="16" viewBox="0 0 16 16">
  <title>cloud-off</title>
  <path fill="rgb(34,34,34)" d="M1.98 7.814c0.12-0.951 0.649-1.779 1.408-2.31l1.095 1.099c-0.601 0.311-1.027 0.936-1.021 1.677l0.092 0.941h-0.87c-0.652 0-1.184 0.511-1.184 1.139s0.531 1.139 1.184 1.139h6.679l1.495 1.5h-8.174c-1.48 0-2.684-1.184-2.684-2.639 0-1.216 0.84-2.242 1.98-2.547zM8.25 8.962l-6.977-7 0.707-0.712 3.638 3.65c0.172 0.014 0.342 0.041 0.512 0.082 0.7-1.209 2.010-1.981 3.458-1.981 1.876 0 3.452 1.261 3.871 3.012 1.501 0.464 2.541 1.82 2.541 3.405 0 1.579-1.046 2.922-2.493 3.398l1.22 1.224-0.708 0.711-5.769-5.789zM12.35 11.5c1.186 0 2.15-0.935 2.15-2.083 0-1.024-0.762-1.886-1.812-2.048l-0.577-0.089-0.056-0.581c-0.119-1.254-1.18-2.199-2.468-2.199-1.067 0-2.014 0.667-2.355 1.661l-0.091 0.267 5.055 5.072h0.154z"></path>
</svg>

<svg width="16" height="16" viewBox="0 0 16 16" fill="rgb(34, 34, 34)" xmlns="http://www.w3.org/2000/svg"><title>cloud-off</title><path d="M1.98 7.814C2.1 6.863 2.629 6.035 3.388 5.504L4.483 6.603C3.882 6.914 3.456 7.539 3.462 8.28L3.554 9.221H2.684C2.032 9.221 1.5 9.732 1.5 10.36C1.5 10.988 2.031 11.499 2.684 11.499H9.363L10.858 12.999H2.684C1.204 12.999 0 11.815 0 10.36C0 9.144 0.84 8.119 1.98 7.814ZM8.25 8.962L1.273 1.962L1.98 1.25L5.618 4.9C5.79 4.914 5.96 4.941 6.13 4.982C6.83 3.773 8.14 3.001 9.588 3.001C11.464 3.001 13.04 4.262 13.459 6.013C14.96 6.477 16 7.833 16 9.418C16 10.997 14.954 12.34 13.507 12.816L14.727 14.04L14.019 14.751L8.25 8.962ZM12.35 11.5C13.536 11.5 14.5 10.565 14.5 9.417C14.5 8.393 13.738 7.531 12.688 7.369L12.111 7.28L12.055 6.699C11.936 5.445 10.875 4.5 9.587 4.5C8.52 4.5 7.573 5.167 7.232 6.161L7.141 6.428L12.196 11.5H12.35Z" fill="rgb(34, 34, 34)" fill-opacity="1.00"/></svg>
